X:1
T:17 - Peccantem me quotidie
T:Gregor Aichinger (1564 - 1628) 2º Libro Sacrae Cantiones a 4, 5, 6, 8 et 10 vocum (Venetia, 1595)
T:17 - Peccantem me quotidie
T:© 2017 Ed. Marcos Mato
T:© 2017 Ed. Marcos Mato
T:© 2017 Ed. Marcos Mato
T:© 2017 Ed. Marcos Mato
T:© 2017 Ed. Marcos Mato
T:© 2017 Ed. Marcos Mato
T:© 2017 Ed. Marcos Mato
C:Gregor Aichinger (1564 - 1628)
C:2º Libro Sacrae Cantiones a 4, 5, 6, 8 et 10 vocum (Venetia, 1595)
Z:© 2017 Ed. Marcos Mato
%%score [ 1 2 3 4 ]
L:1/8
M:4/4
K:F
V:1 treble nm="Soprano" snm="S."
V:2 alto2 nm="Alto" snm="A."
V:3 alto transpose=-12 nm="Tenor" snm="T."
V:4 bass3 nm="Basso" snm="B."
V:1
 A4 | [Ef]2 |[M:4/2]"^Prima pars" A16 | c12 f4 | d4 e4 f4 e2 d2 | c6 d2 e4 A4 | A16- | A8 z8 | %8
w: ||Pec-|can- tem|me quo- ti- * *|* * * di-|e,|_|
 z4 G4 c8 | A8 A8- | A4 F4 F4 E4 | F4 G4 A6 G2 | A2 B2 c6 B2 A4- | A2 GF G4 A4 A4 | A4 c4 c8- | %15
w: quo- ti-|di- e,|_ et non me|poe- ni- ten- *||* * * * tem, et|non me poe-|
 c4 B4 A8 | A16 | z8 d8- | d4 d4 f8 | e8 z4 c4 | c4 d4 e8 | z8 z4 f4- | f2 d4 e2 f8 | z16 | %24
w: * ni- ten-|tem,|ti-|* mor mor-|tis con-|tur- bat me,|con-|* tur- bat me.||
 z8 c8- | c4 B4 A4 G4 | F8 c8 | z8 c8 | d4 f8 e4 | d6 d2 c8 | z16 | z4 f8 e4 | d4 c4 B8 | %33
w: Qui-|* a in in-|fer- no|nul-|la est re-|dem- pti- o,||qui- a|in in- fer-|
 F4 F4 G4 B4- | B4 A2 G2 A4 A4 | B4 d8 c2 B2 | d2 c2 c8 =B4 | c8 z2 c4 c2 | c4 c4 d8 | e8 f8 | %40
w: no nul- la est|_ _ _ _ re-|dem- * * *|* * * pti-|o. Mi- se-|re- re me-|i, De-|
 e8 d8 | z4 e4 f4 d4 | A12 e4 | f4 d4 ^c8 | z4 d8 d4 | d4 c4 B8- | B4 A4 G8 | ^F8 z8 | %48
w: * us,|et sal- va|me, et|sal- va me,|mi- se-|re- re me-|* i, De-|us,|
 z4 d4 =f4 d4 | A12 e4 | f4 d4 e4 A4- | A4 d8 ^c4 | d16- | d16 ||"^Secunda pars" f16 | d12 c4 | %56
w: et sal- va|me, et|sal- va me, et|_ sal- va|me.|_|Com-|mis- sa|
 c4 =B4 c6 c2 | A4 f8 e4- | e2 d2 d8 ^c4 | d8 =c4 A4- | A4 =B4 c8- | c4 F4 _B8 | A16- | A8 z4 A4 | %64
w: me- a, Do- mi-|ne, com- mis-|* * * sa|me- a, Do-|* mi- ne,|_ pa- ves-|co,|_ et|
 A4 d4 c8 | f12 e4 | d8 A4 B4- | B4 A4 G8- | G8 ^F8- | F8 z4 A4 | A6 A2 =F4 G4- | G4 A4 B8 | %72
w: an- te te|e- ru-|bes- co, e-|* ru- bes-|* co.|_ Dum|ve- ne- ris iu-|* di- ca-|
 A8 z8 | z4 f4 d4 e4 | f12 e4 | d8 c8 | z8 A8 | A6 A2 F4 G4- | G4 A4 B8- | B8 A8 | z4 d4 B4 c4 | %81
w: re,|no- li me|con- dem-|na- re.|Dum|ve- ne- ris iu-|* di- ca-|* re,|no- li me|
 d12 c4- | c4 B4 A8 | A16- | A8 z8 | z4 f4 d4 e4 | f12 e4 | d8 c8 | z8 z4 c4 | A4 B4 c8- | %90
w: con- *|* dem- na-|re,|_|no- li me|con- dem-|na- re,|no-|li me con-|
 c4 c4 B8 | A16- | A16- | A16 |] %94
w: * dem- na-|re.|_||
V:2
 A4 | [A,c]2 |[M:4/2] z8 A8- | A8 F8- | F4 C4 D4 E4 | F4 E2 D2 C6 D2 | E4 A,4 A,8- | A,4 C4 B,8 | %8
w: ||Pec-|* can-|* tem me quo-|ti- * * * *|* di- e,|_ et non|
 A,4 C6 D2 E4- | E4 D4 D4 ^C4 | D8 z8 | z8 z4 F4 | F4 G4 F4 E4 | D8 C4 c4 | c6 B2 A4 A4 | %15
w: me poe- * *|* ni- ten- *|tem,|et|non me poe- ni-|ten- tem, et|non me poe- ni-|
 G6 F2 E8 | F8 E8 | E4 A8 G2 F2 | G8 A8- | A8 z4 A4 | A4 =B4 c4 z2 C2 | C4 D4 E4 A4 | F4 G4 A6 B2 | %23
w: ten- * *|tem, ti-|mor mor- * *|* tis|_ con-|tur- bat me, con-|tur- bat me, con-|tur- bat me. _|
 c8 z4 C4 | D4 F8 E4 | D6 D2 C4 c4- | c4 B4 A4 G4 | F8 C8 | F8 A4 c4- | c4 B4 A6 A2 | G8 z4 G4 | %31
w: _ Nul-|la est re-|dem- pti- o, qui-|* a in in-|fer- no,|nul- la est|_ re- dem- pti-|o, nul-|
 A8 c6 BA | B4 A4 G4 D4- | D4 C4 B,8 | F8 z4 F4 | G4 B8 A2 G2 | A4 G4 F6 F2 | G4 A8 A4 | A4 G4 F8 | %39
w: la est _ _|_ re- dem- *|* pti- o,|_ nul-|la est _ _|_ re- dem- pti-|o. Mi- se-|re- re me-|
 E12 D4- | D4 ^C4 D4 A4 | =c4 A4 D4 F4- | F4 F4 F4 E4 | D2 E2 F2 G2 A8 | F4 B4 A4 F4 | G8 G8 | %46
w: i, De-|* * us, et|sal- va me, mi-|* se- re- re|me- * * * *|i, De- us, et|sal- va|
 D8 z8 | z4 D4 _E4 C4 | D8 z4 A,4- | A,4 D8 C4 | A,4 F4 E8 | F8 A4 A4 | F8 B8 | A16 || z8 A8- | %55
w: me,|et sal- va|me, et|_ sal- va-|me, et sal-|va me, et|sal- va|me.|Com-|
 A8 A8- | A4 G4 F4 E4 | F6 G2 A2 B2 c4- | c4 B4 A8- | A4 G8 F4- | F4 D4 G8 | A12 G4- | %62
w: * mis-|* sa me- a,|Do- * * * *|* mi- ne,|_ pa- ves-|* * co,|pa- ves-|
 G2 F2 F2 ED E8 | F16 | z8 A8 | A4 B4 c8 | A4 D4 D8 | F4 F8 E4 | D16 | A,8 z8 | z16 | z16 | %72
w: |co,|et|an- te te|e- ru- bes-|co, e- ru-|bes-|co.|||
 z4 F4 D4 E4 | F12 E4 | D8 C8 | z4 D4 E4 F4 | G4 F4 E8 | F8 z4 E4 | D4 C4 G8- | G4 F4 E8 | %80
w: No- li me|con- dem-|na- re,|no- li me|con- dem- na-|re, no-|li me con-|* dem- na-|
 D8 z4 A4 | F4 G4 A8- | A4 G8 F4 | E8 F4 C4 | C4 c4 A4 B4- | B4 A8 G4 | A4 A4 A6 A2 | A8 A8- | %88
w: re, no-|li me con-|* * dem-|na- re, dum|ve- ne- ris iu-|* di- ca-|re, dum ve- ne-|ris iu-|
 A4 G2 F2 E4 E4 | F4 G4 A4 A4 | G4 F8 E2 D2 | C4 F4 D4 E4 | F4 E4 D3 E F4 | E16 |] %94
w: * * * * di-|ca- * re, no-|li me, _ _|_ no- li me|con- dem- na- * *|re.|
V:3
 A,4 | [D,A]2 |[M:4/2] z16 | z16 | z16 | A,16 | C12 F4 | D4 E4 F4 E2 D2 | C6 D2 E4 A,4 | F8 E8 | %10
w: |||||Pec-|can- tem|me quo- ti- * *|* * * di-|e, pec-|
 F4 D4 C8- | C4 B,4 C4 D4 | C16 | z8 z4 F4 | F4 G4 F8 | E4 D6"^#" ^C"^§"=B, C4 | D8 ^C8- | %17
w: can- tem me|_ quo- ti- di-|e,|et|non me pe-|ni- ten- * * *|tem, ti-|
 C4"^#" ^C4 D8- | D16 | ^C8 E8 | F4 D4 =C4 G,4 | A,4 =B,4 C4 z2 C2 | D4 _B,4 C4 A,4- | %23
w: * mor mor-||tis con-|tur- bat me, con-|tur- bat me, con-|tur- bat me. Qui-|
 A,4 G,4 F,4 E,4 | D,8 A,8 | F12 E4 | D4 D4 C8 | A,4 A,4 A,4 C4- | C4 =B,4 C6 C2 | G4 D4 F4 E4- | %30
w: * a in in-|fer- no,|qui- a|in in- fer-|no nul- la est|_ re- dem- pti-|o, nul- la est|
 E4 D4 C4 B,4 | C16 | z8 z4 G,4 | D4 F8 E4 | D4 C4 C8 | z4 B,4 D4 F4- | F4 E4 D4 D4 | C4 C8 C4 | %38
w: _ re- dem- pti-|o,|nul-|la est re-|dem- pti- o,|nul- la est|_ re- dem- pti-|o. Mi- se-|
 C4 G,4 A,8- | A,4 A,4 A,8 | A,4 E4 F4 D4 | A,8 z4 D4- | D4 D4 D4 C4 | B,8 A,8 | %44
w: re- re me-|* i, De-|us, et sal- va|me, mi-|* se- re- re|me- i,|
 D6 E2 F2 E2 D2 C2 | B,4 C4 D8 | z4 A,4 B,4 G,4 | A,6 B,2 C4 A,4 | B,4 B,4 A,4 F4- | F4 F4 F4 E4 | %50
w: De- * * * * *|* * us,|et sal- va|me, _ _ et|sal- va me, mi-|* se- re- re|
 D8 ^C8 | D8 E8 | z4 D8 G4- | G4 ^F4 F8 || z8 D8 | F12 E4 | D8 C8 | D12 C4 | G4 G4 F4 E4 | %59
w: me- i,|De- us,|et sal-|* va me.|Com-|mis- sa|me- a,|Do- mi-|ne, com- mis- sa|
 D8 E4 D4- | D4 F8 E4 | C4 D8 E4- | E2 D2 D8 ^C4 | D4 A,4 A,4 D4 | C4 F8 E4 | D8 C8 | F8 F4 B,4 | %67
w: me- a, Do-|* * mi-|ne, pa- ves-||co, et an- te|te\_e- ru- bes-|co, et|an- te te|
 C4 D8 C4 | B,8 A,8 | z4 D4 D6 D2 | C4 D8 C4 | B,2 A,2 A,8 G,4 | A,16- | A,16 | z4 A4 A6 A2 | %75
w: e- * ru-|bes- co.|Cum ve- ne-|ris iu- di-|ca- * * *|re,|_|cum ve- ne-|
 F4 G8 F4 | E2 D2 D8 ^C4 | D4 F4 D4 E4 | z4 F8 E4 | D8 ^C8 | z4 F4 G4 F4 | D6 E2 F8 | D8 ^C4 D4- | %83
w: ris iu- di-|ca- * * *|re, no- li me|con- dem-|na- re,|no- li me|con- * *|dem- na- *|
 D4 ^C4 D4 E4 | F4 E4 D8 | B,4 C4 D8 | C4 F4 D4 E4 | F12 E4 | D8 C8- | C16 | z4 A,4 F,4 G,4 | %91
w: * * re. Dum|ve- ne- ris|iu- di- ca-|re, no- li me|con- dem-|na- re,|_|no- li me|
 A,4 D,4 A,8 | A,4 A4 F4 D4- | D4 ^C4 C8 |] %94
w: con- dem- na-|re, con- dem- na-|* * re.|
V:4
 A,4 | [G,,D]2 |[M:4/2] z16 | z16 | z16 | z8 A,8- | A,8 F,8- | F,4 C,4 D,4 E,4 | F,4 E,2 D,2 C,8 | %9
w: |||||Pec-|* can-|* tem me quo-|ti- * * *|
 D,8 A,,8 | D,8 A,8- | A,4 G,4 F,8 | F,4 E,4 A,8 | B,8 A,4 F,4 | F,4 E,4 F,8 | G,8 A,8 | D,8 A,8- | %17
w: * di-|e, et|_ non me|pe- ni- ten-|* tem, et|non me pe-|ni- ten-|tem, ti-|
 A,4 A,4 B,8- | B,8 A,8- | A,16 | z8 C,8 | F,4 D,4 C,4 F,4 | B,4 G,4 F,4 F,4- | F,4 E,4 D,4 C,4 | %24
w: * mor mor-|* tis|_|con-|tur- bat me, con-|tur- bat me. Qui-|* a in in-|
 B,,8 A,,8 | z16 | z8 z4 C,4 | D,4 F,8 E,4 | D,6 D,2 C,8 | z4 G,4 A,4 C4- | C4 B,4 A,4 G,4 | %31
w: fer- no||nul-|la est re-|dem- pti- o,|nul- la est|_ re- dem- pti-|
 F,6 G,2 A,8 | z4 F,4 G,4 B,4- | B,4 A,4 G,4 G,4 | F,16 | z16 | z16 | z4 F,8 F,4 | F,4 E,4 D,8 | %39
w: o, _ _|nul- la est|_ re- dem- pti-|o.|||Mi- se-|re- re me-|
 ^C,8 D,8 | A,,8 D,8 | z16 | z16 | z8 z4 A,4 | B,4 G,4 D,8 | G,12 G,4 | G,4 F,4 _E,8 | D,8 C,8 | %48
w: i, De-|* us,|||et|sal- va me,|mi- se-|re- re me-|i, De-|
 B,,8 D,8 | F,4 D,4 A,,8 | D,8 A,8 | F,4 D,4 A,,4 A,4 | B,8 G,8 | D,16 || z8 D,8- | D,8 F,8- | %56
w: us, et|sal- va me,|et _|sal- va me, et|sal- va|me.|Com-|* mis-|
 F,4 G,4 A,8 | D,4 D,8 A,4 | G,4 G,4 A,8 | =B,8 C4 D4 | D,8 C,8 | F,8 G,8 | A,16 | D,16 | %64
w: * sa me-|a, Do- mi-|ne, com- mis-|sa me- a,|Do- mi-|ne, pa-|ves-|co,|
 F,8 F,8- | F,4 G,4 A,8 | D,8 D,4 G,4 | F,8 G,8- | G,4 G,,4 D,8 | D,16 | z16 | z4 F,4 D,4 E,4 | %72
w: et an-|* te te,|et an- te|te e-|* ru- bes-|co.||No- li me|
 F,12 E,4 | D,12 ^C,4 | D,8 A,8 | B,6 B,2 C4 A,4 | G,8 A,8 | D,4 D6 D2 C4 | B,4 A,4 G,8- | %79
w: con- dem-|na- *|re, dum|ve- ne- ris iu-|di- ca-|re, no- li me|con- dem- na-|
 G,8 A,8 | z4 B,4 G,4 A,4 | B,6 A,G, F,8- | F,4 G,4 A,8- | A,8 D,4 A,4 | A,6 A,2 F,4 G,4- | %85
w: * re,|no- li me|con- * * *|* dem- na-|* re, dum|ve- ne- ris iu-|
 G,4 A,4 B,8 | A,4 D,8 ^C,4 | D,8 A,,4 A,4 | F,4 G,4 A,8- | A,4 G,4 F,8 | E,4 F,4 D,4 E,4 | %91
w: * di- ca-|re, iu- di-|ca- re, no-|li me con-|* dem- na-|re, no- li me|
 F,12 E,4 | D,4 ^C,4 D,8 | A,16 |] %94
w: con- *|* dem- na-|re.|

